!!!SOCIAL_FUNCTION:	songs with hunting dance
!!!PDT:	1956
!!!OTL: No_33_Cypress_Swamp_Hunting_Dance_Song_(h).krn
!!!LANG: Non-Tone
!!!LING_GROUP: Muskogean
!!!REG: Florida
**kern
*staff1
=1-
*clefF4
*k[b-e-a-]
*M2/4
4.B-\
8B-\
=2
8B-\L
8B-\J
8B-\L
8A-\J
=3||
*M3/4
4E-\
8E-\
8r
8E-\L
8E-\J
=4||
*M2/4
4.E-\
8BB-/
=5||
*M3/4
4BB-/
8BB-/
8r
8E-\L
8E-\J
=6||
*M2/4
4E-\
4G\
=7||
*M3/4
4E-\
8E-\
8r
8E-\L
8E-\J
=8||
*M2/4
4.E-\
8BB-/
=9||
*M3/4
4BB-/
4BB-/
8E-\L
8E-\J
=10||
*M2/4
4E-\
4G\
=11||
*M3/4
4E-\
4E-\
8E-\L
8E-\J
=12||
*M2/4
4.E-\
8BB-/
=13
4BB-/
8BB-/
8r
=14||
*M3/4
4.F\
8F\
8F\L
8F\J
=15||
*M2/4
8F\L
8A-\J
8A-\L
8B-\J
=16
8B-\L
8B-\J
8B-\L
8A-\J
=17||
*M3/4
4E-\
8E-\
8r
8E-\L
8E-\J
=18||
*M2/4
4.E-\
8BB-/
=19||
*M3/4
4BB-/
8BB-/
8r
8E-\L
8E-\J
=20||
*M2/4
4E-\
4G\
=21||
*M3/4
4E-\
8E-\
8r
8E-\L
8E-\J
=22||
*M2/4
4.E-\
8BB-/
=23
4BB-/
4BB-/
==
*-
